public/assets/img/layout/home/arrow-mobile.svg

<svg fill="none" viewBox="0 0 323 172" xmlns="http://www.w3.org/2000/svg" xmlns:xlink="http://www.w3.org/1999/xlink"><linearGradient id="a" gradientUnits="userSpaceOnUse" x1="274.274" x2="117.002" y1="27.9045" y2="136.5"><stop offset="0" stop-color="#ffc069"/><stop offset="1" stop-color="#fb9100"/></linearGradient><clipPath id="b"><path d="m0 0h323v172h-323z"/></clipPath><g clip-path="url(#b)"><path d="m293.502 25.5-7.599 50.5049-39.939-31.8331zm-307.0712 115.93c16.9447 8.212 51.3771 18.691 85.5203 20.704 34.4849 2.033 66.5599-4.655 81.4989-28.279l7.477 4.728c-17.749 28.067-54.546 34.442-89.4966 32.382-35.2928-2.081-70.860191-12.852-88.8578-21.575zm146.3142-25.386c5.561.949 13.994.213 24.53-2.348 10.422-2.532 22.494-6.747 35.142-12.378 25.325-11.2749 52.582-28.0588 73.209-47.8785l6.129 6.3788c-21.531 20.6879-49.713 37.994-75.74 49.5807-13.028 5.801-25.61 10.21-36.651 12.893-10.926 2.655-20.762 3.726-28.107 2.472zm20.705 17.811c15.76-24.923 16.208-44.0724 11.293-58.036-5-14.2046-15.848-23.8906-24.095-29.0743l4.708-7.4895c9.253 5.8162 21.841 16.8944 27.731 33.6266 5.975 16.9733 4.766 38.9332-12.16 65.7012zm-57.1173-67.9562c-2.5503 12.2881-.6398 23.508 5.2633 32.2094 5.889 8.6808 16.101 15.3678 31.149 17.9358l-1.488 8.72c-16.961-2.894-29.499-10.659-36.9818-21.69-7.4693-11.0098-9.5537-24.761-6.604-38.9729zm44.3153-19.1541c-7.561-4.7527-17.51-5.762-26.145-2.6467-8.481 3.0595-15.7436 10.1089-18.1703 21.8008l-8.6615-1.7977c3.0733-14.8081 12.5608-24.2588 23.8298-28.3243 11.114-4.0096 23.916-2.7689 33.855 3.4784z" fill="url(#a)"/><g fill="#fff"><path d="m130.497 76c.538 0 .358 1.9854 2.195 4.1752 2.13 2.5383 4.445 2.3503 4.302 2.9489-.105.4379-2.465-.4637-4.884 1.3431-1.838 1.3722-1.449 3.5328-2.136 3.5328-.553 0-.657-1.989-2.27-3.5328-1.449-1.3869-3.704-1.0657-3.704-1.8103 0-.69 2.229 0 4.242-2.1168 1.762-1.8538 1.538-4.5401 2.255-4.5401z"/><path d="m226.495 115c.786 0 .524 2.978 3.209 6.263 3.112 3.807 6.496 3.525 6.287 4.423-.153.657-3.602-.695-7.138 2.015-2.686 2.058-2.118 5.299-3.122 5.299-.807 0-.961-2.984-3.318-5.299-2.117-2.081-5.413-1.599-5.413-2.716 0-1.035 3.258 0 6.199-3.175 2.576-2.781 2.249-6.81 3.296-6.81z"/><path d="m48.4983 139c.2895 0 .193.993 1.1822 2.088 1.1466 1.269 2.393 1.175 2.3161 1.474-.0563.219-1.3271-.232-2.6298.672-.9893.686-.7802 1.766-1.15 1.766-.2975 0-.354-.995-1.2224-1.766-.7801-.694-1.9944-.533-1.9944-.906 0-.345 1.2003 0 2.284-1.058.949-.927.8283-2.27 1.2143-2.27z"/><path d="m262.498 28c.29 0 .193.9927 1.182 2.0876 1.147 1.2692 2.394 1.1752 2.317 1.4744-.057.219-1.328-.2318-2.63.6716-.99.6861-.78 1.7664-1.15 1.7664-.298 0-.354-.9945-1.223-1.7664-.78-.6935-1.994-.5329-1.994-.9051 0-.345 1.2 0 2.284-1.0584.949-.927.828-2.2701 1.214-2.2701z"/></g></g></svg>

<svg viewBox="0 0 323 172" fill="none" xmlns="http://www.w3.org/2000/svg">
<g clip-path="url(#clip0_5093_598)">
<path d="M293.502 25.5L285.903 76.0049L245.964 44.1718L293.502 25.5ZM-13.5692 141.43C3.3755 149.642 37.8079 160.121 71.9511 162.134C106.436 164.167 138.511 157.479 153.45 133.855L160.927 138.583C143.178 166.65 106.381 173.025 71.4304 170.965C36.1376 168.884 0.570209 158.113 -17.4274 149.39L-13.5692 141.43ZM132.745 116.044C138.306 116.993 146.739 116.257 157.275 113.696C167.697 111.164 179.769 106.949 192.417 101.318C217.742 90.0431 244.999 73.2592 265.626 53.4395L271.755 59.8183C250.224 80.5062 222.042 97.8123 196.015 109.399C182.987 115.2 170.405 119.609 159.364 122.292C148.438 124.947 138.602 126.018 131.257 124.764L132.745 116.044ZM153.45 133.855C169.21 108.932 169.658 89.7826 164.743 75.819C159.743 61.6144 148.895 51.9284 140.648 46.7447L145.356 39.2552C154.609 45.0714 167.197 56.1496 173.087 72.8818C179.062 89.8551 177.853 111.815 160.927 138.583L153.45 133.855ZM96.3327 65.8988C93.7824 78.1869 95.6929 89.4068 101.596 98.1082C107.485 106.789 117.697 113.476 132.745 116.044L131.257 124.764C114.296 121.87 101.758 114.105 94.2752 103.074C86.8059 92.0642 84.7215 78.313 87.6712 64.1011L96.3327 65.8988ZM140.648 46.7447C133.087 41.992 123.138 40.9827 114.503 44.098C106.022 47.1575 98.7594 54.2069 96.3327 65.8988L87.6712 64.1011C90.7445 49.293 100.232 39.8423 111.501 35.7768C122.615 31.7672 135.417 33.0079 145.356 39.2552L140.648 46.7447Z" fill="url(#paint0_linear_5093_598)"/>
<path d="M130.497 76C131.035 76 130.855 77.9854 132.692 80.1752C134.822 82.7135 137.137 82.5255 136.994 83.1241C136.889 83.562 134.529 82.6604 132.11 84.4672C130.272 85.8394 130.661 88 129.974 88C129.421 88 129.317 86.011 127.704 84.4672C126.255 83.0803 124 83.4015 124 82.6569C124 81.9669 126.229 82.6569 128.242 80.5401C130.004 78.6863 129.78 76 130.497 76Z" fill="white"/>
<path d="M226.495 115C227.281 115 227.019 117.978 229.704 121.263C232.816 125.07 236.2 124.788 235.991 125.686C235.838 126.343 232.389 124.991 228.853 127.701C226.167 129.759 226.735 133 225.731 133C224.924 133 224.77 130.016 222.413 127.701C220.296 125.62 217 126.102 217 124.985C217 123.95 220.258 124.985 223.199 121.81C225.775 119.029 225.448 115 226.495 115Z" fill="white"/>
<path d="M48.4983 139C48.7878 139 48.6913 139.993 49.6805 141.088C50.8271 142.357 52.0735 142.263 51.9966 142.562C51.9403 142.781 50.6695 142.33 49.3668 143.234C48.3775 143.92 48.5866 145 48.2168 145C47.9193 145 47.8628 144.005 46.9944 143.234C46.2143 142.54 45 142.701 45 142.328C45 141.983 46.2003 142.328 47.284 141.27C48.233 140.343 48.1123 139 48.4983 139Z" fill="white"/>
<path d="M262.498 28C262.788 28 262.691 28.9927 263.68 30.0876C264.827 31.3568 266.074 31.2628 265.997 31.562C265.94 31.781 264.669 31.3302 263.367 32.2336C262.377 32.9197 262.587 34 262.217 34C261.919 34 261.863 33.0055 260.994 32.2336C260.214 31.5401 259 31.7007 259 31.3285C259 30.9835 260.2 31.3285 261.284 30.2701C262.233 29.3431 262.112 28 262.498 28Z" fill="white"/>
</g>
<defs>
<linearGradient id="paint0_linear_5093_598" x1="274.274" y1="27.9045" x2="117.002" y2="136.5" gradientUnits="userSpaceOnUse">
<stop stop-color="#FFC069"/>
<stop offset="1" stop-color="#FB9100"/>
</linearGradient>
<clipPath id="clip0_5093_598">
<rect width="323" height="172" fill="white"/>
</clipPath>
</defs>
</svg>
